aliba_games/img/sprite/discord.svg

<svg width="20" height="20" viewBox="0 0 20 20" fill="none" xmlns="http://www.w3.org/2000/svg">
<g clip-path="url(#clip0_307_1544)">
<path d="M16.6295 3.91798C15.4102 3.35852 14.1027 2.94632 12.7356 2.71022C12.7107 2.70566 12.6858 2.71706 12.673 2.73981C12.5048 3.03891 12.3186 3.42907 12.1881 3.73575C10.7177 3.5156 9.25485 3.5156 7.81461 3.73575C7.68414 3.42227 7.49111 3.03891 7.32219 2.73981C7.30937 2.7178 7.28449 2.70641 7.2596 2.71022C5.89327 2.94554 4.58575 3.35774 3.36566 3.91798C3.35509 3.92254 3.34605 3.93012 3.34003 3.93998C0.859948 7.6452 0.180519 11.2594 0.513807 14.8287C0.515301 14.8461 0.525128 14.8628 0.538691 14.8734C2.17498 16.0751 3.76004 16.8046 5.31562 17.2882C5.34051 17.2958 5.36689 17.2867 5.38273 17.2662C5.75069 16.7637 6.07871 16.2338 6.35995 15.6766C6.37654 15.644 6.3607 15.6053 6.32677 15.5923C5.80647 15.395 5.31106 15.1543 4.83448 14.8811C4.79678 14.8591 4.79376 14.8051 4.82847 14.7793C4.92875 14.7042 5.02908 14.626 5.12484 14.547C5.14218 14.5326 5.16632 14.5296 5.18668 14.5387C8.3175 15.9681 11.707 15.9681 14.8008 14.5387C14.8212 14.5288 14.8453 14.5319 14.8634 14.5462C14.9592 14.6252 15.0595 14.7041 15.1606 14.7793C15.1952 14.8051 15.1929 14.859 15.1553 14.881C14.6787 15.1596 14.1833 15.3949 13.6622 15.5915C13.6283 15.6044 13.6132 15.6439 13.6299 15.6765C13.9171 16.233 14.2452 16.7628 14.6063 17.2654C14.6214 17.2866 14.6486 17.2958 14.6734 17.2881C16.2366 16.8046 17.8216 16.0751 19.4579 14.8734C19.4723 14.8628 19.4813 14.8468 19.4828 14.8294C19.8817 10.7029 18.8147 7.11833 16.6543 3.94069C16.6491 3.93012 16.6401 3.92254 16.6295 3.91798ZM6.82756 12.6553C5.88498 12.6553 5.10829 11.79 5.10829 10.7272C5.10829 9.66439 5.86988 8.79904 6.82756 8.79904C7.79272 8.79904 8.56189 9.67201 8.5468 10.7272C8.5468 11.79 7.78517 12.6553 6.82756 12.6553ZM13.1842 12.6553C12.2417 12.6553 11.465 11.79 11.465 10.7272C11.465 9.66439 12.2266 8.79904 13.1842 8.79904C14.1494 8.79904 14.9185 9.67201 14.9035 10.7272C14.9035 11.79 14.1494 12.6553 13.1842 12.6553Z" fill="white"/>
</g>
<defs>
<clipPath id="clip0_307_1544">
<rect width="19.1304" height="19.1304" fill="white" transform="translate(0.434753 0.434814)"/>
</clipPath>
</defs>
</svg>

<svg width="20" height="20" fill="none" xmlns="http://www.w3.org/2000/svg"><g clip-path="url(#clip0_307_1544)"><path d="M16.63 3.918a15.777 15.777 0 0 0-3.894-1.208.06.06 0 0 0-.063.03c-.168.299-.354.69-.485.996-1.47-.22-2.933-.22-4.373 0-.13-.314-.324-.697-.493-.996a.061.061 0 0 0-.062-.03 15.732 15.732 0 0 0-3.894 1.208.056.056 0 0 0-.026.022C.86 7.645.18 11.26.514 14.829a.066.066 0 0 0 .025.044 15.865 15.865 0 0 0 4.777 2.415.062.062 0 0 0 .067-.022 11.34 11.34 0 0 0 .977-1.59.06.06 0 0 0-.033-.084 10.447 10.447 0 0 1-1.493-.71.061.061 0 0 1-.006-.103c.1-.075.201-.153.297-.232a.06.06 0 0 1 .062-.008c3.13 1.43 6.52 1.43 9.614 0a.06.06 0 0 1 .062.007c.096.08.197.158.298.233a.061.061 0 0 1-.006.102 9.8 9.8 0 0 1-1.493.71.06.06 0 0 0-.032.086c.287.556.615 1.086.976 1.588a.06.06 0 0 0 .067.023 15.809 15.809 0 0 0 4.785-2.415.061.061 0 0 0 .025-.044c.399-4.126-.668-7.71-2.829-10.888a.048.048 0 0 0-.024-.023zm-9.802 8.737c-.943 0-1.72-.865-1.72-1.928S5.87 8.8 6.828 8.8c.965 0 1.734.873 1.719 1.928 0 1.063-.762 1.928-1.72 1.928zm6.356 0c-.942 0-1.719-.865-1.719-1.928s.762-1.928 1.72-1.928c.964 0 1.733.873 1.718 1.928 0 1.063-.754 1.928-1.719 1.928z" fill="#fff"/></g><defs><clipPath id="clip0_307_1544"><path fill="#fff" transform="translate(.435 .435)" d="M0 0h19.13v19.13H0z"/></clipPath></defs></svg>
